Newaita-dark/apps/16/libreoffice-main.svg

<svg height="16" viewBox="0 0 16 16" width="16" xmlns="http://www.w3.org/2000/svg" xmlns:xlink="http://www.w3.org/1999/xlink"><linearGradient id="a" gradientTransform="matrix(.0372059 0 0 .031253 -1.315168 6.719393)" gradientUnits="userSpaceOnUse" x1="254" x2="254" y1="233.5" y2="254.666672"><stop offset="0" stop-opacity=".27451"/><stop offset="1" stop-opacity="0"/></linearGradient><linearGradient id="b"><stop offset="0" stop-opacity=".313726"/><stop offset=".222222" stop-opacity=".27451"/><stop offset="1" stop-opacity="0"/></linearGradient><radialGradient id="c" cx="450.908936" cy="189.579361" gradientTransform="matrix(.00000009 -.0390662 -.0703192 -.00000005 25.238424 31.797666)" gradientUnits="userSpaceOnUse" r="21.166656" xlink:href="#b"/><radialGradient id="d" cx="450.908936" cy="189.579361" gradientTransform="matrix(-.00000009 .0390662 .0703192 .00000005 -9.361907 -3.763739)" gradientUnits="userSpaceOnUse" r="21.166656" xlink:href="#b"/><radialGradient id="e" cx="450.908936" cy="189.579361" gradientTransform="matrix(-.00000009 -.0390662 .0703192 -.00000005 -9.361907 31.797666)" gradientUnits="userSpaceOnUse" r="21.166656" xlink:href="#b"/><radialGradient id="f" cx="450.908936" cy="189.579361" gradientTransform="matrix(.00000009 .0390662 -.0703192 .00000005 25.238423 -3.76374)" gradientUnits="userSpaceOnUse" r="21.166656" xlink:href="#b"/><linearGradient id="g"><stop offset="0" stop-color="#424242"/><stop offset="1" stop-color="#616161"/></linearGradient><linearGradient id="h" gradientUnits="userSpaceOnUse" x1="7.9382592" x2="7.9382592" xlink:href="#g" y1="14.01696600048" y2="1.4480552201"/><linearGradient id="i" gradientUnits="userSpaceOnUse" x1="7.9382592" x2="7.9382592" y1="13.35544440048" y2="2.1095768201"><stop offset="0" stop-color="#e0e0e0"/><stop offset="1" stop-color="#eee"/></linearGradient><linearGradient id="j" gradientUnits="userSpaceOnUse" x1="7.93826137498" x2="7.93826137498" xlink:href="#g" y1="14.01696437503" y2="1.44804984381"/><path d="m3.804688 14.015625h8.269531v.664063h-8.269531zm0 0" fill="url(#a)"/><path d="m12.074219 14.015625h1.320312v-.660156h-1.320312zm0 0" fill="url(#c)"/><path d="m3.804688 14.015625h-1.324219v.664063h1.324219zm0 0" fill="url(#d)"/><path d="m3.804688 14.015625h-1.324219v-.660156h1.324219zm0 0" fill="url(#e)"/><path d="m12.074219 14.015625h1.320312v.664063h-1.320312zm0 0" fill="url(#f)"/><path d="m3.308594 1.449219c-.367188 0-.664063.292969-.664063.660156v11.246094c0 .367187.296875.660156.664063.660156h9.261718c.363282 0 .660157-.292969.660157-.660156v-7.527344l-4.378907-4.378906zm6.945312 0 2.976563 2.976562v-2.316406c0-.367187-.296875-.660156-.660157-.660156zm0 0" fill="url(#h)"/><path d="m3.636719 2.109375c-.179688 0-.328125.148437-.328125.332031v10.582032c0 .183593.148437.332031.328125.332031h8.601562c.183594 0 .332031-.148438.332031-.332031v-6.945313l-3.96875-3.96875zm0 0" fill="url(#i)"/><path d="m5.953125 5.085938c-.183594 0-.332031.148437-.332031.332031v4.628906c0 .183594.148437.332031.332031.332031h3.96875c.183594 0 .332031-.148437.332031-.332031v-3.355469l-1.738281-1.605468zm3.117187 0 1.183594 1.09375v-.761719c0-.183594-.148437-.332031-.332031-.332031zm0 0" fill="url(#j)"/><path d="m5.953125 5.085938c-.183594 0-.332031.148437-.332031.332031v.164062c0-.183593.148437-.332031.332031-.332031h2.5625l1.738281 1.605469v-.164063l-1.738281-1.605468zm3.117187 0 .179688.164062h.671875c.183594 0 .332031.148438.332031.332031v-.164062c0-.183594-.148437-.332031-.332031-.332031zm0 0" fill="#fff" fill-opacity=".392157"/><path d="m9.070312 5.335938 1.183594 1.09375v-.25l-.914062-.84375zm-3.449218 4.710937v.25c0 .183594.148437.328125.332031.328125h3.96875c.183594 0 .332031-.144531.332031-.328125v-.25c0 .183594-.148437.332031-.332031.332031h-3.96875c-.183594 0-.332031-.148437-.332031-.332031zm0 0" fill-opacity=".235294"/><path d="m719.931288 615.059407c-22.202605 0-40.153648 17.951043-40.153648 40.153648v559.789092c0 22.202606 17.951043 40.153648 40.153648 40.153648h479.954192c22.202605 0 40.153648-17.951042 40.153648-40.153648v-405.788042l-210.216157-194.154698zm376.971895 0 143.135945 132.270841v-92.117193c0-22.202605-17.951043-40.153648-40.153648-40.153648zm0 0" fill="none" stroke="#212121" stroke-linecap="round" stroke-linejoin="round" stroke-width="11.338583" transform="scale(.00826902)"/><path d="m3.308594 1.449219c-.367188 0-.664063.292969-.664063.660156v.164063c0-.363282.296875-.660157.664063-.660157h5.542968l4.378907 4.378907v-.164063l-4.378907-4.378906zm6.945312 0 .164063.164062h2.152343c.363282 0 .660157.296875.660157.660157v-.164063c0-.367187-.296875-.660156-.660157-.660156zm0 0" fill="#fff" fill-opacity=".392157"/><path d="m3.636719 2.109375c-.179688 0-.328125.148437-.328125.332031v.246094c0-.183594.148437-.328125.328125-.328125h4.964843l3.96875 3.96875v-.25l-3.96875-3.96875zm0 0" fill-opacity=".235294"/><path d="m3.308594 13.035156v.15625c0 .183594.148437.332032.328125.332032h8.601562c.183594 0 .332031-.148438.332031-.332032v-.15625c0 .183594-.148437.332032-.332031.332032h-8.601562c-.179688 0-.328125-.148438-.328125-.332032zm0 0" fill="#fff" fill-opacity=".392157"/><path d="m439.800544 255.093763c-21.73021 0-39.681252 17.951043-39.681252 40.153648v1279.72038c0 22.202605 17.951042 40.153648 39.681252 40.153648h1040.21568c22.202605 0 40.153648-17.951043 40.153648-40.153648v-839.919836l-479.954192-479.954192zm0 0" fill="none" stroke="#212121" stroke-linecap="round" stroke-linejoin="round" stroke-width="11.338583" transform="scale(.00826902)"/><path d="m10.253906 1.449219 2.976563 2.976562v-.164062l-2.816407-2.8125zm-7.609375 11.746093v.160157c0 .367187.296875.660156.664063.660156h9.261718c.363282 0 .660157-.292969.660157-.660156v-.160157c0 .363282-.296875.660157-.660157.660157h-9.261718c-.367188 0-.664063-.296875-.664063-.660157zm0 0" fill-opacity=".235294"/><path d="m400.119292 175.258863c-44.405211 0-80.307296 35.42969-80.307296 79.8349v1360.027676c0 44.405211 35.902085 79.8349 80.307296 79.8349h1120.05058c43.932814 0 79.8349-35.429689 79.8349-79.8349v-910.306819l-529.555757-529.555757zm839.919836 0 359.965644 359.965644v-280.130744c0-44.40521-35.902086-79.8349-79.8349-79.8349zm0 0" fill="none" stroke="#212121" stroke-linecap="round" stroke-linejoin="round" stroke-width="11.338583" transform="scale(.00826902)"/></svg>

<?xml version="1.0" encoding="UTF-8"?>
<svg xmlns="http://www.w3.org/2000/svg" xmlns:xlink="http://www.w3.org/1999/xlink" width="16px" height="16px" viewBox="0 0 16 16" version="1.1">
<defs>
<linearGradient id="linear0" gradientUnits="userSpaceOnUse" x1="254" y1="233.5" x2="254" y2="254.666672" gradientTransform="matrix(0.0372059,0,0,0.031253,-1.315168,6.719393)">
<stop offset="0" style="stop-color:rgb(0%,0%,0%);stop-opacity:0.27451;"/>
<stop offset="1" style="stop-color:rgb(0%,0%,0%);stop-opacity:0;"/>
</linearGradient>
<radialGradient id="radial0" gradientUnits="userSpaceOnUse" cx="450.908936" cy="189.579361" fx="450.908936" fy="189.579361" r="21.166656" gradientTransform="matrix(0.0000000870852,-0.0390662,-0.0703192,-0.0000000507693,25.238424,31.797666)">
<stop offset="0" style="stop-color:rgb(0%,0%,0%);stop-opacity:0.313726;"/>
<stop offset="0.222222" style="stop-color:rgb(0%,0%,0%);stop-opacity:0.27451;"/>
<stop offset="1" style="stop-color:rgb(0%,0%,0%);stop-opacity:0;"/>
</radialGradient>
<radialGradient id="radial1" gradientUnits="userSpaceOnUse" cx="450.908936" cy="189.579361" fx="450.908936" fy="189.579361" r="21.166656" gradientTransform="matrix(-0.0000000870852,0.0390662,0.0703192,0.0000000507693,-9.361907,-3.763739)">
<stop offset="0" style="stop-color:rgb(0%,0%,0%);stop-opacity:0.313726;"/>
<stop offset="0.222222" style="stop-color:rgb(0%,0%,0%);stop-opacity:0.27451;"/>
<stop offset="1" style="stop-color:rgb(0%,0%,0%);stop-opacity:0;"/>
</radialGradient>
<radialGradient id="radial2" gradientUnits="userSpaceOnUse" cx="450.908936" cy="189.579361" fx="450.908936" fy="189.579361" r="21.166656" gradientTransform="matrix(-0.0000000870852,-0.0390662,0.0703192,-0.0000000507693,-9.361907,31.797666)">
<stop offset="0" style="stop-color:rgb(0%,0%,0%);stop-opacity:0.313726;"/>
<stop offset="0.222222" style="stop-color:rgb(0%,0%,0%);stop-opacity:0.27451;"/>
<stop offset="1" style="stop-color:rgb(0%,0%,0%);stop-opacity:0;"/>
</radialGradient>
<radialGradient id="radial3" gradientUnits="userSpaceOnUse" cx="450.908936" cy="189.579361" fx="450.908936" fy="189.579361" r="21.166656" gradientTransform="matrix(0.0000000870852,0.0390662,-0.0703192,0.0000000507693,25.238423,-3.76374)">
<stop offset="0" style="stop-color:rgb(0%,0%,0%);stop-opacity:0.313726;"/>
<stop offset="0.222222" style="stop-color:rgb(0%,0%,0%);stop-opacity:0.27451;"/>
<stop offset="1" style="stop-color:rgb(0%,0%,0%);stop-opacity:0;"/>
</radialGradient>
<linearGradient id="linear1" gradientUnits="userSpaceOnUse" x1="254" y1="233.5" x2="254" y2="-168.666672" gradientTransform="matrix(0.031253,0,0,0.031253,0,6.719391)">
<stop offset="0" style="stop-color:rgb(87.843138%,87.843138%,87.843138%);stop-opacity:1;"/>
<stop offset="1" style="stop-color:rgb(93.333334%,93.333334%,93.333334%);stop-opacity:1;"/>
</linearGradient>
<linearGradient id="linear2" gradientUnits="userSpaceOnUse" x1="413.712219" y1="-474.701691" x2="413.712219" y2="-72.535034" gradientTransform="matrix(0.031253,0,0,0.031253,0,6.719391)">
<stop offset="0" style="stop-color:rgb(38.039216%,38.039216%,38.039216%);stop-opacity:1;"/>
<stop offset="1" style="stop-color:rgb(45.882353%,45.882353%,45.882353%);stop-opacity:1;"/>
</linearGradient>
<linearGradient id="linear3" gradientUnits="userSpaceOnUse" x1="248.708328" y1="101.208344" x2="248.708328" y2="-300.958313" gradientTransform="matrix(0.031253,0,0,0.031253,0.16538,10.8539)">
<stop offset="0" style="stop-color:rgb(38.039216%,38.039216%,38.039216%);stop-opacity:1;"/>
<stop offset="1" style="stop-color:rgb(45.882353%,45.882353%,45.882353%);stop-opacity:1;"/>
</linearGradient>
</defs>
<g id="surface1">
<path style=" stroke:none;fill-rule:nonzero;fill:url(#linear0);" d="M 3.804688 14.015625 L 12.074219 14.015625 L 12.074219 14.679688 L 3.804688 14.679688 Z M 3.804688 14.015625 "/>
<path style=" stroke:none;fill-rule:nonzero;fill:url(#radial0);" d="M 12.074219 14.015625 L 13.394531 14.015625 L 13.394531 13.355469 L 12.074219 13.355469 Z M 12.074219 14.015625 "/>
<path style=" stroke:none;fill-rule:nonzero;fill:url(#radial1);" d="M 3.804688 14.015625 L 2.480469 14.015625 L 2.480469 14.679688 L 3.804688 14.679688 Z M 3.804688 14.015625 "/>
<path style=" stroke:none;fill-rule:nonzero;fill:url(#radial2);" d="M 3.804688 14.015625 L 2.480469 14.015625 L 2.480469 13.355469 L 3.804688 13.355469 Z M 3.804688 14.015625 "/>
<path style=" stroke:none;fill-rule:nonzero;fill:url(#radial3);" d="M 12.074219 14.015625 L 13.394531 14.015625 L 13.394531 14.679688 L 12.074219 14.679688 Z M 12.074219 14.015625 "/>
<path style=" stroke:none;fill-rule:nonzero;fill:url(#linear1);" d="M 9.953125 1.449219 L 3.308594 1.449219 C 2.941406 1.449219 2.644531 1.742188 2.644531 2.109375 L 2.644531 13.355469 C 2.644531 13.722656 2.941406 14.015625 3.308594 14.015625 L 12.570312 14.015625 C 12.933594 14.015625 13.230469 13.722656 13.230469 13.355469 L 13.230469 4.453125 Z M 9.953125 1.449219 "/>
<path style=" stroke:none;fill-rule:nonzero;fill:url(#linear2);" d="M 9.953125 1.449219 L 13.230469 4.453125 L 13.230469 2.109375 C 13.230469 1.742188 12.933594 1.449219 12.570312 1.449219 Z M 9.953125 1.449219 "/>
<path style=" stroke:none;fill-rule:nonzero;fill:rgb(0%,0%,0%);fill-opacity:0.235294;" d="M 2.644531 13.191406 L 2.644531 13.355469 C 2.644531 13.722656 2.941406 14.015625 3.308594 14.015625 L 12.570312 14.015625 C 12.933594 14.015625 13.230469 13.722656 13.230469 13.355469 L 13.230469 13.191406 C 13.230469 13.554688 12.933594 13.851562 12.570312 13.851562 L 3.308594 13.851562 C 2.941406 13.851562 2.644531 13.554688 2.644531 13.191406 Z M 2.644531 13.191406 "/>
<path style=" stroke:none;fill-rule:nonzero;fill:rgb(100%,100%,100%);fill-opacity:1;" d="M 3.308594 1.449219 C 2.941406 1.449219 2.644531 1.742188 2.644531 2.109375 L 2.644531 2.441406 C 2.644531 2.074219 2.941406 1.777344 3.308594 1.777344 L 9.953125 1.777344 L 13.230469 4.785156 L 13.230469 4.453125 L 9.953125 1.449219 Z M 3.308594 1.449219 "/>
<path style=" stroke:none;fill-rule:nonzero;fill:rgb(100%,100%,100%);fill-opacity:0.392157;" d="M 9.953125 1.449219 L 10.3125 1.777344 L 12.570312 1.777344 C 12.933594 1.777344 13.230469 2.074219 13.230469 2.441406 L 13.230469 2.109375 C 13.230469 1.742188 12.933594 1.449219 12.570312 1.449219 Z M 9.953125 1.449219 "/>
<path style=" stroke:none;fill-rule:nonzero;fill:rgb(0%,0%,0%);fill-opacity:0.235294;" d="M 9.953125 1.449219 L 13.230469 4.453125 L 13.230469 4.175781 L 10.253906 1.449219 Z M 9.953125 1.449219 "/>
<path style="fill:none;stroke-width:11.338583;stroke-linecap:round;stroke-linejoin:round;stroke:rgb(12.941177%,12.941177%,12.941177%);stroke-opacity:1;stroke-miterlimit:4;" d="M 1203.664647 175.258863 L 400.119292 175.258863 C 355.714081 175.258863 319.811996 210.688553 319.811996 255.093763 L 319.811996 1615.121439 C 319.811996 1659.52665 355.714081 1694.956339 400.119292 1694.956339 L 1520.169872 1694.956339 C 1564.102686 1694.956339 1600.004772 1659.52665 1600.004772 1615.121439 L 1600.004772 538.531278 Z M 1203.664647 175.258863 " transform="matrix(0.00826902,0,0,0.00826902,0,0)"/>
<path style="fill:none;stroke-width:3;stroke-linecap:round;stroke-linejoin:round;stroke:rgb(12.941177%,12.941177%,12.941177%);stroke-opacity:1;stroke-miterlimit:4;" d="M 318.469588 -168.629428 L 423.334574 -72.513607 L 423.334574 -147.506445 C 423.334574 -159.255323 413.835481 -168.629428 402.211591 -168.629428 Z M 318.469588 -168.629428 " transform="matrix(0.031253,0,0,0.031253,0,6.719392)"/>
<path style=" stroke:none;fill-rule:nonzero;fill:url(#linear3);" d="M 5.953125 5.085938 C 5.769531 5.085938 5.621094 5.234375 5.621094 5.417969 L 5.621094 10.046875 C 5.621094 10.230469 5.769531 10.378906 5.953125 10.378906 L 9.921875 10.378906 C 10.105469 10.378906 10.253906 10.230469 10.253906 10.046875 L 10.253906 6.691406 L 8.515625 5.085938 Z M 9.070312 5.085938 L 10.253906 6.179688 L 10.253906 5.417969 C 10.253906 5.234375 10.105469 5.085938 9.921875 5.085938 Z M 9.070312 5.085938 "/>
<path style=" stroke:none;fill-rule:nonzero;fill:rgb(100%,100%,100%);fill-opacity:0.392157;" d="M 5.953125 5.085938 C 5.769531 5.085938 5.621094 5.234375 5.621094 5.417969 L 5.621094 5.582031 C 5.621094 5.398438 5.769531 5.25 5.953125 5.25 L 8.515625 5.25 L 10.253906 6.855469 L 10.253906 6.691406 L 8.515625 5.085938 Z M 9.070312 5.085938 L 9.25 5.25 L 9.921875 5.25 C 10.105469 5.25 10.253906 5.398438 10.253906 5.582031 L 10.253906 5.417969 C 10.253906 5.234375 10.105469 5.085938 9.921875 5.085938 Z M 9.070312 5.085938 "/>
<path style=" stroke:none;fill-rule:nonzero;fill:rgb(0%,0%,0%);fill-opacity:0.235294;" d="M 9.070312 5.335938 L 10.253906 6.429688 L 10.253906 6.179688 L 9.339844 5.335938 Z M 5.621094 10.046875 L 5.621094 10.296875 C 5.621094 10.480469 5.769531 10.625 5.953125 10.625 L 9.921875 10.625 C 10.105469 10.625 10.253906 10.480469 10.253906 10.296875 L 10.253906 10.046875 C 10.253906 10.230469 10.105469 10.378906 9.921875 10.378906 L 5.953125 10.378906 C 5.769531 10.378906 5.621094 10.230469 5.621094 10.046875 Z M 5.621094 10.046875 "/>
<path style="fill:none;stroke-width:11.338583;stroke-linecap:round;stroke-linejoin:round;stroke:rgb(12.941177%,12.941177%,12.941177%);stroke-opacity:1;stroke-miterlimit:4;" d="M 719.931288 615.059407 C 697.728683 615.059407 679.77764 633.01045 679.77764 655.213055 L 679.77764 1215.002147 C 679.77764 1237.204753 697.728683 1255.155795 719.931288 1255.155795 L 1199.88548 1255.155795 C 1222.088085 1255.155795 1240.039128 1237.204753 1240.039128 1215.002147 L 1240.039128 809.214105 L 1029.822971 615.059407 Z M 1096.903183 615.059407 L 1240.039128 747.330248 L 1240.039128 655.213055 C 1240.039128 633.01045 1222.088085 615.059407 1199.88548 615.059407 Z M 1096.903183 615.059407 " transform="matrix(0.00826902,0,0,0.00826902,0,0)"/>
</g>
</svg>
